X: 32
T: Praeludia organi op. 5 – Largo
C: Franciszek Walczyński
%%abc-version 2.0
%%abcx-abcm2ps-target-version 5.9.1 (29 Sep 2008)
%%abc-creator hum2abc beta
%%abcx-conversion-date 2021/10/04 07:38:40
%%abc-edited-by Andrzej Borzym
%%abc-edited-by Krzysztof Stępień
%%abcx-initial-encoding-date 2021-07-26
%%humdrum-veritas 3301159625
%%humdrum-veritas-data 2119761692
%%linebreak <none>
%%barnumbers 0
L: 1/8
M: C
N: Derived from pl-kozmzk--mzk-m-159--021_walczynski-franciszek--praeludia-organi-op-5-largo.krn
Q: "21. Largo."
%%staves {1 2}
V: 1 clef=treble
V: 2 clef=bass
K: A
[V:1] z8 & z8 | 
[V:2] F,2>^E,2 F,A,CF & z8 | 
[V:1] z8 & z8 | 
[V:2] A6G2 & z8 | 
[V:1] c4.c2.c2 & A4G2=G2 | 
[V:2] F4^E2=E2 & z8 | 
[V:1] c2>B2A2B2 & F8 | 
[V:2] D8 & z8 | 
[V:1] !fermata!c8 & ^E8 | 
[V:2] C8 & z2C,2!fermata!C,4 | 
[V:1] z8 & z8 | 
[V:2] z8 & C,2>^B,,2 C,^E,G,B, | 
[V:1] z8 & z8 | 
[V:2] z8 & D6C2 | 
[V:1] B4A2G2 & G4F4 | 
[V:2] D4C2C2 & B,4C2C,2 | 
[V:1] !accent!G8 & ^E8 | 
[V:2] B,8 & C,8 | 
[V:1] !fermata!F8 & F8 | 
[V:2] A,8 & !fermata!F,8 | 
[V:1] !accent!B2>A2 GBd^e & B2>A2 GBd^e | 
[V:2] !accent!B,2>A,2 G,B,D^E & B,2>A,2 G,B,D^E | 
[V:1] f4!fermata!z2.F.G & f4x2FF | 
[V:2] F4!fermata!z2F,D & F4x2F,B,, | 
[V:1] A4G4 & F6^E2 | 
[V:2] C6B,2- & C,8 | 
[V:1] !fermata!F8 & C8 |]  
[V:2] B,2^A,G,A,4 & !fermata!F,,8 |]  


